X: 31432
T: Paddy Ryan's Nightmare
R: reel
M: 4/4
K: Gmajor
|:GE|D~G3 BGAF|DGGF GDB,C|DGGF GABc|dgeg fdcA|
B~G3 BGAF|DGGF GDB,G,|A,B,CD EFGB|cAFA [1G2:|2 GA||
|:Bc|d~g3 dgBg|dgbg agfg|eaaB cdea|agab agfe|
d~g3 dgBg|dgbg agfe|dega bgdB|cAFA [1GA:|2 G2||

